X: 126008
M: 2/4
L: 1/16
K: D
|: (uFE) |\
E2E2   efgf | edcB AGFE |\
vB3vG uA3uE | F2D2D2 :|
|: (de) |\
fedB   ABde | fedB d3uB |\
fedB   ABde | faef d2A2 |\


